src/pages/elements/images/this-is-comfortable-desktop.svg

<svg xmlns="http://www.w3.org/2000/svg" viewBox="0 0 928 176"><g fill="none" fill-rule="evenodd"><path fill="#FFF" d="M0 0h928v176H0z"/><path d="M95.6 70.072H79.616V115h-6.048V70.072H57.584v-5.328H95.6v5.328zM103.304 115V61.72h5.76v22.176h.288c1.8-4.176 4.968-6.912 10.512-6.912 7.632 0 12.456 5.184 12.456 14.184V115h-5.76V92.176c0-6.624-2.88-10.008-8.424-10.008-4.608 0-9.072 2.304-9.072 7.056V115h-5.76zm43.776-45.864c-2.448 0-3.528-1.296-3.528-3.24v-.936c0-1.944 1.08-3.24 3.528-3.24s3.528 1.296 3.528 3.24v.936c0 1.944-1.08 3.24-3.528 3.24zM144.2 115V77.848h5.76V115h-5.76zm29.16.864c-6.84 0-11.376-2.88-14.688-7.272l4.104-3.312c2.88 3.6 6.336 5.688 11.016 5.688 4.896 0 7.776-2.232 7.776-6.048 0-2.88-1.584-5.112-6.48-5.832l-2.952-.432c-6.84-1.008-11.952-3.816-11.952-10.728 0-7.344 5.688-10.944 13.248-10.944 5.976 0 9.936 2.232 12.96 5.976l-3.816 3.456c-1.656-2.304-4.824-4.536-9.576-4.536-4.752 0-7.272 2.232-7.272 5.76 0 3.6 2.52 5.04 7.128 5.76l2.88.432c8.208 1.224 11.376 4.824 11.376 10.44 0 7.2-5.256 11.592-13.752 11.592zm43.776-46.728c-2.448 0-3.528-1.296-3.528-3.24v-.936c0-1.944 1.08-3.24 3.528-3.24s3.528 1.296 3.528 3.24v.936c0 1.944-1.08 3.24-3.528 3.24zM214.256 115V77.848h5.76V115h-5.76zm29.16.864c-6.84 0-11.376-2.88-14.688-7.272l4.104-3.312c2.88 3.6 6.336 5.688 11.016 5.688 4.896 0 7.776-2.232 7.776-6.048 0-2.88-1.584-5.112-6.48-5.832l-2.952-.432c-6.84-1.008-11.952-3.816-11.952-10.728 0-7.344 5.688-10.944 13.248-10.944 5.976 0 9.936 2.232 12.96 5.976l-3.816 3.456c-1.656-2.304-4.824-4.536-9.576-4.536-4.752 0-7.272 2.232-7.272 5.76 0 3.6 2.52 5.04 7.128 5.76l2.88.432c8.208 1.224 11.376 4.824 11.376 10.44 0 7.2-5.256 11.592-13.752 11.592zm54.72 0c-10.44 0-16.56-7.56-16.56-19.44 0-11.88 6.12-19.44 16.56-19.44 7.344 0 11.736 3.6 13.896 8.712l-4.824 2.448c-1.368-3.816-4.536-6.048-9.072-6.048-6.84 0-10.368 4.68-10.368 11.16v6.336c0 6.48 3.528 11.16 10.368 11.16 4.68 0 8.064-2.232 10.08-6.48l4.176 2.808c-2.376 5.328-7.2 8.784-14.256 8.784zm36 0c-9.936 0-16.776-7.632-16.776-19.44 0-11.808 6.84-19.44 16.776-19.44s16.776 7.632 16.776 19.44c0 11.808-6.84 19.44-16.776 19.44zm0-5.112c6.192 0 10.584-3.816 10.584-11.664V93.76c0-7.848-4.392-11.664-10.584-11.664-6.192 0-10.584 3.816-10.584 11.664v5.328c0 7.848 4.392 11.664 10.584 11.664zm32.04 4.248h-5.76V77.848h5.76v6.048h.288c1.656-3.816 4.248-6.912 10.008-6.912 4.896 0 9.36 2.232 11.376 7.56h.144c1.368-4.032 4.968-7.56 11.304-7.56 7.56 0 12.096 5.184 12.096 14.184V115h-5.76V92.176c0-6.552-2.52-10.008-8.136-10.008-4.536 0-8.712 2.304-8.712 7.056V115h-5.76V92.176c0-6.624-2.52-10.008-7.992-10.008-4.536 0-8.856 2.304-8.856 7.056V115zm59.112 0V82.888h-6.048v-5.04h6.048V70.36c0-5.112 2.664-8.64 8.136-8.64h5.616v5.04h-7.992v11.088h7.992v5.04h-7.992V115h-5.76zm35.064.864c-9.936 0-16.776-7.632-16.776-19.44 0-11.808 6.84-19.44 16.776-19.44s16.776 7.632 16.776 19.44c0 11.808-6.84 19.44-16.776 19.44zm0-5.112c6.192 0 10.584-3.816 10.584-11.664V93.76c0-7.848-4.392-11.664-10.584-11.664-6.192 0-10.584 3.816-10.584 11.664v5.328c0 7.848 4.392 11.664 10.584 11.664zm32.04 4.248h-5.76V77.848h5.76v6.84h.36c1.296-3.528 4.68-6.84 10.728-6.84h2.232v5.76h-3.384c-6.192 0-9.936 2.664-9.936 6.192V115zm36.36 0h-7.2c-3.96 0-6.12-2.52-6.12-6.12V82.888h-6.12v-5.04h3.456c2.448 0 3.24-.864 3.24-3.384v-6.912h5.184v10.296h8.136v5.04h-8.136v27.072h7.56V115zm40.104 0h-3.24c-4.248 0-5.976-2.592-6.408-6.048h-.36c-1.584 4.536-5.544 6.912-10.728 6.912-7.848 0-12.456-4.32-12.456-11.232 0-6.984 5.04-10.872 15.84-10.872h7.344v-3.672c0-5.256-2.88-8.136-8.784-8.136-4.464 0-7.416 2.16-9.432 5.544l-3.456-3.24c2.016-3.96 6.48-7.272 13.176-7.272 8.928 0 14.256 4.68 14.256 12.528v20.448h4.248V115zm-19.8-4.032c5.688 0 9.792-2.952 9.792-6.768v-6.12h-7.632c-6.552 0-9.504 2.016-9.504 5.616v1.512c0 3.672 2.88 5.76 7.344 5.76zM577.064 115V61.72h5.76v22.176h.288c1.944-4.68 5.76-6.912 10.872-6.912 9.288 0 15.12 7.56 15.12 19.44 0 11.88-5.832 19.44-15.12 19.44-5.112 0-8.64-2.304-10.872-6.912h-.288V115h-5.76zm15.336-4.32c6.48 0 10.512-4.464 10.512-11.088v-6.336c0-6.624-4.032-11.088-10.512-11.088-5.256 0-9.576 3.024-9.576 7.128v13.824c0 4.824 4.32 7.56 9.576 7.56zm37.656 4.32h-5.112c-3.96 0-6.12-2.52-6.12-5.976V61.72h5.76v48.24h5.472V115zm22.32.864c-10.08 0-16.704-7.632-16.704-19.44 0-11.808 6.624-19.44 16.704-19.44 9.936 0 16.056 7.632 16.056 18.144v2.736H641.72v1.728c0 6.408 4.104 11.232 11.016 11.232 4.68 0 8.28-2.304 10.224-6.408l4.104 2.952c-2.376 5.04-7.704 8.496-14.688 8.496zm0-34.056c-6.264 0-10.656 4.752-10.656 11.232v.504h20.52v-.792c0-6.552-3.96-10.944-9.864-10.944zm27.792 34.056c-3.024 0-4.392-1.728-4.392-4.176v-.936c0-2.448 1.368-4.176 4.392-4.176s4.392 1.728 4.392 4.176v.936c0 2.448-1.368 4.176-4.392 4.176z" fill="#3D3D3D"/></g></svg>

<?xml version="1.0" encoding="UTF-8"?>
<svg width="928px" height="176px" viewBox="0 0 928 176" version="1.1" xmlns="http://www.w3.org/2000/svg" xmlns:xlink="http://www.w3.org/1999/xlink">
    <!-- Generator: Sketch 51.2 (57519) - http://www.bohemiancoding.com/sketch -->
    <title>Group 3</title>
    <desc>Created with Sketch.</desc>
    <defs></defs>
    <g id="Page-1" stroke="none" stroke-width="1" fill="none" fill-rule="evenodd">
        <g id="Type-Basics" transform="translate(-352.000000, -246.000000)">
            <g id="Group-3" transform="translate(352.000000, 246.000000)">
                <rect id="bg" fill="#FFFFFF" x="0" y="0" width="928" height="176"></rect>
                <path d="M95.6,70.072 L79.616,70.072 L79.616,115 L73.568,115 L73.568,70.072 L57.584,70.072 L57.584,64.744 L95.6,64.744 L95.6,70.072 Z M103.304,115 L103.304,61.72 L109.064,61.72 L109.064,83.896 L109.352,83.896 C111.152,79.72 114.32,76.984 119.864,76.984 C127.496,76.984 132.32,82.168 132.32,91.168 L132.32,115 L126.56,115 L126.56,92.176 C126.56,85.552 123.68,82.168 118.136,82.168 C113.528,82.168 109.064,84.472 109.064,89.224 L109.064,115 L103.304,115 Z M147.08,69.136 C144.632,69.136 143.552,67.84 143.552,65.896 L143.552,64.96 C143.552,63.016 144.632,61.72 147.08,61.72 C149.528,61.72 150.608,63.016 150.608,64.96 L150.608,65.896 C150.608,67.84 149.528,69.136 147.08,69.136 Z M144.2,115 L144.2,77.848 L149.96,77.848 L149.96,115 L144.2,115 Z M173.36,115.864 C166.52,115.864 161.984,112.984 158.672,108.592 L162.776,105.28 C165.656,108.88 169.112,110.968 173.792,110.968 C178.688,110.968 181.568,108.736 181.568,104.92 C181.568,102.04 179.984,99.808 175.088,99.088 L172.136,98.656 C165.296,97.648 160.184,94.84 160.184,87.928 C160.184,80.584 165.872,76.984 173.432,76.984 C179.408,76.984 183.368,79.216 186.392,82.96 L182.576,86.416 C180.92,84.112 177.752,81.88 173,81.88 C168.248,81.88 165.728,84.112 165.728,87.64 C165.728,91.24 168.248,92.68 172.856,93.4 L175.736,93.832 C183.944,95.056 187.112,98.656 187.112,104.272 C187.112,111.472 181.856,115.864 173.36,115.864 Z M217.136,69.136 C214.688,69.136 213.608,67.84 213.608,65.896 L213.608,64.96 C213.608,63.016 214.688,61.72 217.136,61.72 C219.584,61.72 220.664,63.016 220.664,64.96 L220.664,65.896 C220.664,67.84 219.584,69.136 217.136,69.136 Z M214.256,115 L214.256,77.848 L220.016,77.848 L220.016,115 L214.256,115 Z M243.416,115.864 C236.576,115.864 232.04,112.984 228.728,108.592 L232.832,105.28 C235.712,108.88 239.168,110.968 243.848,110.968 C248.744,110.968 251.624,108.736 251.624,104.92 C251.624,102.04 250.04,99.808 245.144,99.088 L242.192,98.656 C235.352,97.648 230.24,94.84 230.24,87.928 C230.24,80.584 235.928,76.984 243.488,76.984 C249.464,76.984 253.424,79.216 256.448,82.96 L252.632,86.416 C250.976,84.112 247.808,81.88 243.056,81.88 C238.304,81.88 235.784,84.112 235.784,87.64 C235.784,91.24 238.304,92.68 242.912,93.4 L245.792,93.832 C254,95.056 257.168,98.656 257.168,104.272 C257.168,111.472 251.912,115.864 243.416,115.864 Z M298.136,115.864 C287.696,115.864 281.576,108.304 281.576,96.424 C281.576,84.544 287.696,76.984 298.136,76.984 C305.48,76.984 309.872,80.584 312.032,85.696 L307.208,88.144 C305.84,84.328 302.672,82.096 298.136,82.096 C291.296,82.096 287.768,86.776 287.768,93.256 L287.768,99.592 C287.768,106.072 291.296,110.752 298.136,110.752 C302.816,110.752 306.2,108.52 308.216,104.272 L312.392,107.08 C310.016,112.408 305.192,115.864 298.136,115.864 Z M334.136,115.864 C324.2,115.864 317.36,108.232 317.36,96.424 C317.36,84.616 324.2,76.984 334.136,76.984 C344.072,76.984 350.912,84.616 350.912,96.424 C350.912,108.232 344.072,115.864 334.136,115.864 Z M334.136,110.752 C340.328,110.752 344.72,106.936 344.72,99.088 L344.72,93.76 C344.72,85.912 340.328,82.096 334.136,82.096 C327.944,82.096 323.552,85.912 323.552,93.76 L323.552,99.088 C323.552,106.936 327.944,110.752 334.136,110.752 Z M366.176,115 L360.416,115 L360.416,77.848 L366.176,77.848 L366.176,83.896 L366.464,83.896 C368.12,80.08 370.712,76.984 376.472,76.984 C381.368,76.984 385.832,79.216 387.848,84.544 L387.992,84.544 C389.36,80.512 392.96,76.984 399.296,76.984 C406.856,76.984 411.392,82.168 411.392,91.168 L411.392,115 L405.632,115 L405.632,92.176 C405.632,85.624 403.112,82.168 397.496,82.168 C392.96,82.168 388.784,84.472 388.784,89.224 L388.784,115 L383.024,115 L383.024,92.176 C383.024,85.552 380.504,82.168 375.032,82.168 C370.496,82.168 366.176,84.472 366.176,89.224 L366.176,115 Z M425.288,115 L425.288,82.888 L419.24,82.888 L419.24,77.848 L425.288,77.848 L425.288,70.36 C425.288,65.248 427.952,61.72 433.424,61.72 L439.04,61.72 L439.04,66.76 L431.048,66.76 L431.048,77.848 L439.04,77.848 L439.04,82.888 L431.048,82.888 L431.048,115 L425.288,115 Z M460.352,115.864 C450.416,115.864 443.576,108.232 443.576,96.424 C443.576,84.616 450.416,76.984 460.352,76.984 C470.288,76.984 477.128,84.616 477.128,96.424 C477.128,108.232 470.288,115.864 460.352,115.864 Z M460.352,110.752 C466.544,110.752 470.936,106.936 470.936,99.088 L470.936,93.76 C470.936,85.912 466.544,82.096 460.352,82.096 C454.16,82.096 449.768,85.912 449.768,93.76 L449.768,99.088 C449.768,106.936 454.16,110.752 460.352,110.752 Z M492.392,115 L486.632,115 L486.632,77.848 L492.392,77.848 L492.392,84.688 L492.752,84.688 C494.048,81.16 497.432,77.848 503.48,77.848 L505.712,77.848 L505.712,83.608 L502.328,83.608 C496.136,83.608 492.392,86.272 492.392,89.8 L492.392,115 Z M528.752,115 L521.552,115 C517.592,115 515.432,112.48 515.432,108.88 L515.432,82.888 L509.312,82.888 L509.312,77.848 L512.768,77.848 C515.216,77.848 516.008,76.984 516.008,74.464 L516.008,67.552 L521.192,67.552 L521.192,77.848 L529.328,77.848 L529.328,82.888 L521.192,82.888 L521.192,109.96 L528.752,109.96 L528.752,115 Z M568.856,115 L565.616,115 C561.368,115 559.64,112.408 559.208,108.952 L558.848,108.952 C557.264,113.488 553.304,115.864 548.12,115.864 C540.272,115.864 535.664,111.544 535.664,104.632 C535.664,97.648 540.704,93.76 551.504,93.76 L558.848,93.76 L558.848,90.088 C558.848,84.832 555.968,81.952 550.064,81.952 C545.6,81.952 542.648,84.112 540.632,87.496 L537.176,84.256 C539.192,80.296 543.656,76.984 550.352,76.984 C559.28,76.984 564.608,81.664 564.608,89.512 L564.608,109.96 L568.856,109.96 L568.856,115 Z M549.056,110.968 C554.744,110.968 558.848,108.016 558.848,104.2 L558.848,98.08 L551.216,98.08 C544.664,98.08 541.712,100.096 541.712,103.696 L541.712,105.208 C541.712,108.88 544.592,110.968 549.056,110.968 Z M577.064,115 L577.064,61.72 L582.824,61.72 L582.824,83.896 L583.112,83.896 C585.056,79.216 588.872,76.984 593.984,76.984 C603.272,76.984 609.104,84.544 609.104,96.424 C609.104,108.304 603.272,115.864 593.984,115.864 C588.872,115.864 585.344,113.56 583.112,108.952 L582.824,108.952 L582.824,115 L577.064,115 Z M592.4,110.68 C598.88,110.68 602.912,106.216 602.912,99.592 L602.912,93.256 C602.912,86.632 598.88,82.168 592.4,82.168 C587.144,82.168 582.824,85.192 582.824,89.296 L582.824,103.12 C582.824,107.944 587.144,110.68 592.4,110.68 Z M630.056,115 L624.944,115 C620.984,115 618.824,112.48 618.824,109.024 L618.824,61.72 L624.584,61.72 L624.584,109.96 L630.056,109.96 L630.056,115 Z M652.376,115.864 C642.296,115.864 635.672,108.232 635.672,96.424 C635.672,84.616 642.296,76.984 652.376,76.984 C662.312,76.984 668.432,84.616 668.432,95.128 L668.432,97.864 L641.72,97.864 L641.72,99.592 C641.72,106 645.824,110.824 652.736,110.824 C657.416,110.824 661.016,108.52 662.96,104.416 L667.064,107.368 C664.688,112.408 659.36,115.864 652.376,115.864 Z M652.376,81.808 C646.112,81.808 641.72,86.56 641.72,93.04 L641.72,93.544 L662.24,93.544 L662.24,92.752 C662.24,86.2 658.28,81.808 652.376,81.808 Z M680.168,115.864 C677.144,115.864 675.776,114.136 675.776,111.688 L675.776,110.752 C675.776,108.304 677.144,106.576 680.168,106.576 C683.192,106.576 684.56,108.304 684.56,110.752 L684.56,111.688 C684.56,114.136 683.192,115.864 680.168,115.864 Z" id="This-is-comfortable." fill="#3D3D3D"></path>
            </g>
        </g>
    </g>
</svg>
